X:1
T:Don't Let Your Deal Go Down
M:4/4
L:1/8
K:D
 D/2D/2| B, B,2 B, B2B-F| ^G G- G2 E2 E2| A A- A2B-A A2| F4 z2 D2|\
 B, B,- B,2 B2 B2| ^GG-G F E3 E| AA A2 G F2 E| D4 z4| B, B,2 B, B2 ^G2|\
 E6 z2| A A2 AB-A A2| F6 z2| B, B,2 B B2 ^G2| E4 z2 FE| A2 A2 G F2 E|\
 D4 z2 z||
